packages/assets/static/images/icons/student.svg

<svg width="24" height="24" viewBox="0 0 24 24" xmlns="http://www.w3.org/2000/svg">
<path d="M21.3565 5.302L12.3565 2.302C12.126 2.2242 11.8763 2.2242 11.6458 2.302L2.64584 5.302C2.43109 5.37313 2.24277 5.50734 2.10546 5.68713C1.96816 5.86692 1.88824 6.08392 1.87615 6.30982C1.87513 6.32949 1.87513 6.34921 1.87615 6.36888V13.8689C1.87615 14.1672 1.99468 14.4534 2.20566 14.6644C2.41663 14.8754 2.70278 14.9939 3.00115 14.9939C3.29952 14.9939 3.58567 14.8754 3.79665 14.6644C4.00762 14.4534 4.12615 14.1672 4.12615 13.8689V7.92982L6.34896 8.67044C5.65911 9.99091 5.45411 11.5115 5.76964 12.9675C6.08516 14.4235 6.90124 15.7228 8.07584 16.6392C6.53874 17.3972 5.23786 18.5606 4.31365 20.0039C4.23042 20.1276 4.17261 20.2666 4.14358 20.4128C4.11455 20.5591 4.11487 20.7096 4.14454 20.8557C4.1742 21.0018 4.23261 21.1406 4.31637 21.2639C4.40013 21.3873 4.50757 21.4927 4.63245 21.5742C4.75733 21.6556 4.89715 21.7114 5.04379 21.7384C5.19043 21.7653 5.34095 21.7628 5.48663 21.7311C5.6323 21.6993 5.77021 21.6389 5.89233 21.5534C6.01446 21.4679 6.11837 21.359 6.19803 21.2329C7.53584 19.1742 9.6574 17.9939 12.0012 17.9939C14.3449 17.9939 16.4665 19.1742 17.809 21.2329C17.8886 21.359 17.9925 21.4679 18.1147 21.5534C18.2368 21.6389 18.3747 21.6993 18.5204 21.7311C18.666 21.7628 18.8166 21.7653 18.9632 21.7384C19.1098 21.7114 19.2497 21.6556 19.3745 21.5742C19.4994 21.4927 19.6069 21.3873 19.6906 21.2639C19.7744 21.1406 19.8328 21.0018 19.8625 20.8557C19.8921 20.7096 19.8924 20.5591 19.8634 20.4128C19.8344 20.2666 19.7766 20.1276 19.6933 20.0039C18.7682 18.5589 17.4656 17.3944 15.9265 16.6364C17.1011 15.72 17.9171 14.4207 18.2327 12.9647C18.5482 11.5086 18.3432 9.98809 17.6533 8.66763L21.3565 7.43294C21.5802 7.3581 21.7747 7.21482 21.9125 7.02336C22.0504 6.83191 22.1245 6.60197 22.1245 6.36607C22.1245 6.13016 22.0504 5.90023 21.9125 5.70877C21.7747 5.51732 21.5802 5.37404 21.3565 5.29919V5.302ZM12.0012 4.552L17.4433 6.36888L12.0012 8.18294L6.56365 6.36888L12.0012 4.552ZM16.1262 11.6189C16.1263 12.2596 15.9771 12.8915 15.6906 13.4646C15.404 14.0377 14.9879 14.5361 14.4752 14.9204C13.9625 15.3047 13.3674 15.5642 12.7369 15.6785C12.1065 15.7928 11.4581 15.7586 10.8431 15.5788C10.2282 15.3989 9.66356 15.0782 9.19408 14.6422C8.7246 14.2062 8.36313 13.6668 8.13835 13.0668C7.91356 12.4669 7.83163 11.8227 7.89905 11.1856C7.96648 10.5484 8.1814 9.93573 8.52678 9.39607L11.6458 10.4358C11.8764 10.5133 12.1259 10.5133 12.3565 10.4358L15.4755 9.39607C15.901 10.0593 16.1268 10.8309 16.1262 11.6189Z"/>
</svg>

<svg viewBox="0 0 24 24" xmlns="http://www.w3.org/2000/svg" aria-hidden="true" fill="currentColor" height="24px" width="24px"><path d="m21.357 5.302-9-3a1.1 1.1 0 0 0-.711 0l-9 3a1.125 1.125 0 0 0-.77 1.067v7.5a1.125 1.125 0 0 0 2.25 0v-5.94l2.223.741a6.37 6.37 0 0 0 1.727 7.97 9.4 9.4 0 0 0-3.762 3.364 1.125 1.125 0 1 0 1.884 1.229c1.338-2.059 3.46-3.24 5.803-3.24s4.466 1.181 5.808 3.24a1.12 1.12 0 0 0 1.566.341 1.124 1.124 0 0 0 .318-1.57 9.4 9.4 0 0 0-3.767-3.368 6.37 6.37 0 0 0 1.727-7.968l3.704-1.235a1.125 1.125 0 0 0 0-2.134zM12 4.552l5.442 1.817-5.442 1.814-5.437-1.814zm4.125 7.067a4.126 4.126 0 0 1-7.988 1.448 4.13 4.13 0 0 1 .389-3.67l3.119 1.039c.23.077.48.077.71 0l3.12-1.04a4.1 4.1 0 0 1 .65 2.223"/></svg>
